X:1
T:Français, 87.87.887
T:Français, 87.87.887
T:Joshua F. Drake, 2004
T:Public Domain Courtesy of the Cyber Hymnal™
C:Joshua F. Drake, 2004
Z:Public Domain
Z:Courtesy of the Cyber Hymnal™
%%score ( 1 2 ) ( 3 4 )
L:1/8
M:4/4
K:C
V:1 treble 
V:2 treble 
V:3 bass 
V:4 bass 
V:1
 C4 | [CG]2 [CE]2 C2 [CE]2 | [DF]4 [CE]4 | D6 C2 | [B,D]2 [CE]2 [CF]2 [CE]2 | %5
[M:3/2] [CE]2 [B,D]6 C4 |[M:4/4] [CG]2 [CE]2 C2 [CE]2 | [DF]4 [CE]4 | D6 C2 | %9
 [B,D]2 [CE]2 [CF]2 [CE]2 | [CE]2 [B,D]4 [CG]2 | [EG]2 [DF]2 [CE]2 C2 | [CE]4 [CF]4 | [DG]6 [EG]2 | %14
 [Ec]2 [DG]2 [EG]2 [Ge]2 | [Fd]4 [Bd]4 | [Ac]6 C2 | [B,D]2 [CE]2 [CF]2 [CE]2 | D8 | C8 |] %20
V:2
 C4 | x4 C2 x2 | x8 | D6 C2 | x8 |[M:3/2] x8 C4 |[M:4/4] x4 C2 x2 | x8 | D6 C2 | x8 | x8 | x6 C2 | %12
 x8 | x8 | x8 | x8 | x6 C2 | x8 | D8 | C8 |] %20
V:3
 C,4 | [C,E,]2 [C,A,]2 [C,E,]2 [C,A,]2 | [F,A,]4 [A,C]4 | [G,B,]6 [C,E,]2 | %4
 [B,,G,]2 [A,,C]2 [F,A,]2 [A,,A,]2 |[M:3/2] [C,G,]2 [G,,G,]6 C,4 | %6
[M:4/4] [C,E,]2 [C,A,]2 [C,E,]2 [C,A,]2 | [F,A,]4 [A,C]4 | [G,B,]6 [C,E,]2 | %9
 [B,,G,]2 [A,,C]2 [F,A,]2 [A,,A,]2 | [C,G,]2 [G,,G,]4 [C,E,]2 | [C,G,]2 [D,G,]2 [E,G,]2 [E,G,]2 | %12
 [C,G,]4 [A,,F,]4 | [G,,B,]6 [C,C]2 | [C,C]2 [D,B,]2 [E,C]2 [C,C]2 | [F,,D]4 [G,,D]4 | %16
 [A,,E]6 [C,E,]2 | [B,,G,]2 [A,,C]2 [F,,A,]2 [A,,A,]2 | [F,,A,]4 [G,,B,]4 | [C,C]8 |] %20
V:4
 C,4 | x8 | x8 | x8 | x8 |[M:3/2] x8 C,4 |[M:4/4] x8 | x8 | x8 | x8 | x8 | x8 | x8 | x8 | x8 | x8 | %16
 x8 | x8 | x8 | x8 |] %20

